packages/dnb-eufemia/assets/icons/travel_medium.svg

<svg width="24" height="24" viewBox="0 0 24 24" fill="none" xmlns="http://www.w3.org/2000/svg">
<path d="M15.5042 5.69912L18.9027 3.98646C20.2868 3.30046 22.0319 3.89625 22.7132 5.26296C23.4011 6.64312 22.8036 8.38317 21.433 9.0625L17.8691 10.8254L15.9322 18.9202C15.8547 19.2436 15.6301 19.5251 15.3315 19.6731L13.3833 20.6367C12.6426 21.0049 11.7471 20.4259 11.7583 19.6184V13.8483L8.00893 15.7073C7.21074 16.102 6.19937 15.9759 5.52318 15.3975L1.38545 11.8861C0.777092 11.366 0.914453 10.358 1.61745 10.0075L3.79248 9.05217L5.82147 10.5786L10.4274 8.25749M15.5042 5.69912L10.8893 3.36784C10.5734 3.21072 10.1881 3.21072 9.8722 3.36784L7.95714 4.31075C7.21582 4.68121 7.13169 5.74061 7.77796 6.23066L10.4274 8.25749M15.5042 5.69912L10.4274 8.25749" stroke="black" stroke-width="1.5" stroke-linecap="round" stroke-linejoin="round"/>
</svg>

<svg width="24" height="24" viewBox="0 0 24 24" fill="none" xmlns="http://www.w3.org/2000/svg"><path d="m15.504 5.7 3.399-1.714c1.384-.686 3.129-.09 3.81 1.277.688 1.38.09 3.12-1.28 3.8l-3.564 1.762-1.937 8.095a1.149 1.149 0 0 1-.6.753l-1.949.964c-.74.368-1.636-.211-1.625-1.019v-5.77l-3.75 1.86a2.317 2.317 0 0 1-2.485-.31l-4.138-3.512c-.608-.52-.47-1.528.232-1.878l2.175-.956 2.03 1.527 4.605-2.322M15.504 5.7 10.89 3.368a1.156 1.156 0 0 0-1.017 0l-1.915.943c-.741.37-.825 1.43-.179 1.92l2.65 2.026M15.503 5.7l-5.077 2.558" stroke="#000" stroke-width="1.5" stroke-linecap="round" stroke-linejoin="round"/></svg>
